**kern	**kern
*staff1	*staff1
*head[head1a]	*head[head1a]
*solo1[solo1b]	*solo1[solo1b]
*head[head1aa]	*head[head1aa]
*solo1[solo1a]	*solo1[solo1a]
*solo2[solo2b]	*solo2[solo2b]
*solo1[solo1aa]	*solo1[solo1aa]
*solo2[solo2a]	*solo2[solo2a]
*solo3[solo3b]	*solo3[solo3b]
*solo2[solo2aa]	*solo2[solo2aa]
=1-	=1-
*clefG2	*clefG2
*k[]	*k[]
*b-:	*b-:
*M4/4	*M4/4
8r	1B-:min
*>head1a	*>head1a
{4ff\	.
8dd-\	.
8b-/L	.
8f/J	.
8r	.
8f/	.
=2	=2
8ee-/L	2C:min
8g/	.
8b-/	.
8a/J	.
4r	2F:dom
8r	.
8f/	.
=3	=3
8g\L	1B-:min
8dd-\	.
8cc\	.
8b-\J	.
8ee-\L	.
8cc\	.
8dd-\	.
[8g\J	.
=4	=4
8g/]	2C:min
4d-/	.
8d-/	.
8g-/L	2F:dom
8B/	.
8A/	.
[8B-/J	.
=5	=5
8B-/]	1B-:min
4ff\	.
8dd-\	.
8b-/L	.
8f/J	.
8r	.
8f/	.
=6	=6
8g-\L	1F:dom:9-
8b-\	.
8cc\	.
8b-\J	.
8dd-\L	.
8b-\	.
8cc\	.
8b-\J}	.
=7	=7
2r	1B-:min
4r	.
8r	.
8f/	.
=8	=8
{16a-/LL	1F:dom:9-:9+
16g-/J	.
[8a-/	.
8a-/]	.
8g-/J	.
16a-/LL	.
16g-/J	.
[8a-/J	.
4a-/]}	.
=9	=9
8r	1B-:min
{4ff\	.
8dd-\	.
8b-/L	.
8f/J	.
8r	.
8f/	.
=10||	=10||
8ee-/L	2C:min
8g/	.
8b-/	.
8a/J	.
4r	2F:dom
8r	.
8f/	.
=11	=11
8g\L	1B-:min
8dd-\	.
8cc\	.
8b-\J	.
8ee-\L	.
8cc\	.
8dd-\	.
[8g\J	.
=12	=12
8g/]	2C:min
4d-/	.
8d-/	.
8g-/L	2F:dom:9-
8B/	.
8A/	.
[8B-/J	.
=13	=13
8B-/]	1B-:min
4ff\	.
8dd-\	.
8b-/L	.
8f/J	.
8r	.
8f/	.
=14	=14
8g-/L	1F:dom:9-
8f/	.
8d-/	.
8c/J	.
4B/	.
8A/L	.
8B-/J}	.
=15	=15
1r	1B-:min
=16	=16
*>solo1b	*>solo1b
{12f/L	1B-:min
12g/	.
12b-/J	.
8cc/L	.
8a/J	.
8b-/L	.
8f/	.
8d-/	.
8B-/J	.
=17	=17
4.g-/	1F:min
8f/}	.
4r	.
8r	.
{8d-/	.
=18||	=18||
12c/L	1B-:dom
12e-/	.
12g-/J	.
8b/L	.
8a/J	.
8b-\L	.
[8gg-\J	.
4gg-\]	.
=19	=19
8ff\L	1E-:min
[8ee-\J	.
4ee-\]}	.
2r	.
=20	=20
4r	1E-:min
{12cc\L	.
12cc#\	.
12dd\J	.
8ee-\L	.
8dd\	.
8dd-\	.
8cc#\J	.
=21	=21
8b-/L	1E-:min
8g-/	.
8e-/	.
8B-/J	.
8d-/L	.
8Bn/	.
8c/	.
8f/J	.
=22	=22
8e/L	1A-:dom
8e-/	.
8b/	.
8b-/J	.
24a/LL	.
24b-/	.
24a/JJ	.
8g-/L	.
8en/	.
8d-/J	.
=23	=23
8a-/L	1D-:maj
8e/J	.
12f/L	.
12a-/	.
12cc/J	.
8ee-\L	.
8dd\	.
8dd-\	.
16ee-\L	.
16dd-\JJ	.
=24	=24
8cc/L	1F:dom:b9
8b-/	.
8a/	.
8c/J	.
8e-/L	.
8g-/	.
8e-/	.
8en/J	.
=25	=25
*>head1aa	*>head1aa
8f/	1B-:min
4ff\	.
8dd-\	.
8b-/L	.
8f/J	.
8r	.
8f/	.
=26||	=26||
8ee-/L	2C:min
8g/	.
8b-/	.
8a/J}	.
4r	2F:dom
8r	.
*>solo1a	*>solo1a
{8f/	.
=27	=27
8g\L	1B-:min
8dd-\	.
8cc\	.
8b-\J	.
8ee-\L	.
8cc\	.
8dd-\	.
[8g\J	.
=28	=28
8g/]	2C:min
4d-/	.
8d-/	.
8g-/L	2F:dom
8B/	.
8A/	.
[8B-/J	.
=29	=29
8B-/]	1B-:min
4ff\	.
8dd-\	.
8b-/L	.
8f/J	.
8r	.
8f/	.
=30	=30
8g-/L	1F:dom:9-
8f/	.
8d-/	.
8c/J	.
4B/	.
8A/L	.
8B-/J	.
=31	=31
8r	1B-:min
8G-/	.
12F/L	.
12G-/	.
12B-/J	.
8c/L	.
8B-/	.
8A/	.
8c/J	.
=32	=32
8e-/L	1F:dom:9-
[8g-/J	.
2g-/_	.
8g-/L]	.
8f/J	.
=33	=33
2d-/}	1B-:min
2r	.
=34||	=34||
2r	2C:min
{8r	2F:dom
8f/L	.
8g/	.
8a/J	.
=35	=35
8cc\L	1B-:min
8b-\	.
8a\	.
8cc\J	.
8ee-\L	.
[8gg-\J	.
4gg-\]	.
=36	=36
4ff\	2C:min
4r	.
12cc\L	2F:dom
12cc#\	.
12dd\J	.
8ee-\L	.
8ccn\J	.
=37	=37
8dd-\L	1B-:min
8f\	.
8b-\	.
8dd-\J	.
8cc/L	.
8b-/	.
8a/	.
8c/J	.
=38	=38
8e-/L	1F:dom:9-
8g-/	.
8e-/	.
8en/J	.
8f/L	.
8c/	.
8e-/	.
8c/J	.
=39	=39
4d-/	1B-:min
8f/L	.
[8G/J	.
4G/]}	.
4r	.
=40	=40
2r	1F:dom
8r	.
{8d-/L	.
8F/	.
8G/J	.
=41	=41
8d-/L	1B-:min
8B-/	.
8F/	.
8B-/J	.
8c/L	.
8A/	.
8B-/	.
8c/J	.
=42||	=42||
8d-/L	2C:min
8e-/	.
8en/	.
8f/J	.
8g-/L	2F:dom
8f/	.
8e-/	.
8c/J	.
=43	=43
8d-/L	1B-:min
8F/	.
8G/	.
8d-/J	.
8c/L	.
8B-/	.
8A/	.
8B-/J	.
=44	=44
8c/L	2C:min
8G/J	.
[2B-/	.
8B-/L]	2F:dom
16c/L	.
16e-/JJ	.
=45	=45
8g-/L	1B-:min
[8f/J	.
4f/]}	.
2r	.
=46	=46
4r	1F:dom
{12a\L	.
12b-\	.
12bn\J	.
8cc\L	.
8b-\	.
8a\	.
8cc\J	.
=47	=47
8b-/L	1B-:min
8f/	.
8d-/	.
8B-/J	.
8g-/L	.
8f/	.
8e-/	.
8c/J	.
=48	=48
8d-/L	1B-:min
8B-/J}	.
4r	.
2r	.
=49	=49
8r	1F:min
*>solo2b	*>solo2b
{8e/	.
12f/L	.
12a-/	.
12cc/J	.
4.ee-\	.
8dd-\	.
=50||	=50||
8dd\L	1B-:dom
8b-\	.
8bn\	.
8cc\J	.
8a-/L	.
8f/J	.
[4g-/	.
=51	=51
4g-/]	1E-:min
8d/L	.
8B-/J	.
8f/L	.
[8e-/J	.
4e-/]}	.
=52	=52
1r	1E-:min
=53	=53
8r	1E-:min
{8b\L	.
8cc\	.
8ee-\J	.
8b-/L	.
8g-/	.
8e-/	.
8c/J	.
=54	=54
8d-/L	1A-:dom
8B/	.
8c/	.
8f/J	.
8e/L	.
8c/	.
8b/	.
8b-/J	.
=55	=55
8a/L	1D-:maj
8f#/	.
8e/	.
8d-/J	.
4a-/	.
8r	.
8e/	.
=56	=56
12f/L	1F:dom
12a-/	.
12cc/J	.
[2ee-\	.
8ee-\L]	.
8cc\J	.
=57	=57
8dd-\L	1B-:min
8b-\J}	.
4r	.
2r	.
=58||	=58||
{16f\LL	2C:min
16b-\	.
16dd-\	.
16ff\JJ	.
2cc\}	2F:dom
4r	.
=59	=59
1r	1B-:min
=60	=60
*>solo1aa	*>solo1aa
{[2g/	2C:min
8g/L]	2F:dom
8b-/	.
8a/	.
8cc/J	.
=61	=61
8ee-\L	1B-:min
8gg-\	.
8ff\	.
8ee-\J}	.
2r	.
=62	=62
{8dd-\L	1F:dom
16ee-\L	.
16dd-\J	.
8cc\	.
8b-\J	.
8a/L	.
8cc/J	.
4e/	.
=63	=63
4f/}	1B-:min
4r	.
4r	.
8r	.
{[8f/	.
=64	=64
4.f/]	1F:dom
8d-/	.
8e-/L	.
8c/J}	.
4r	.
=65	=65
4r	1B-:min
{12c/L	.
12c#/	.
12d/J	.
4.e-/	.
8d-/	.
=66||	=66||
8c/L	2C:min
8B-/J	.
12A/L	.
12c/	.
12e-/J	.
8g-/L	2F:dom
8f/	.
8e-/	.
8c/J	.
=67	=67
8d-/L	1B-:min
8F/	.
8B-/	.
8d-/J	.
8f/L	.
16g-/L	.
16f/J	.
8e-/	.
8d-/J	.
=68	=68
8c/L	2C:min
8B-/J	.
12A/L	.
12c/	.
12e-/J	.
8g-/L	2F:dom
8f/	.
8e-/	.
8c/J	.
=69	=69
8d-/L	1B-:min
8f/J	.
2r	.
8cc/L	.
[8g/J	.
=70	=70
4g/]	1F:dom:9-
8r	.
8b-\	.
8a\L	.
8cc\	.
8ee-\	.
8gg-\J	.
=71	=71
8ff\L	1B-:min
8b-\J}	.
4r	.
2r	.
=72	=72
2r	1F:dom
4r	.
*>solo2a	*>solo2a
{8cc\L	.
8b-\J	.
=73	=73
4cc\	1B-:min
8ee-\L	.
8dd-\J	.
4.ee-\	.
8dd-\	.
=74||	=74||
8cc/L	2C:min
8b-/	.
8a/	.
8c/J	.
8e-/L	2F:dom
8g-/	.
8f/	.
8en/J}	.
=75	=75
4f/	1B-:min
4r	.
4r	.
{12c/L	.
12c#/	.
12d/J	.
=76	=76
8e-/L	2C:min
8d-/	.
8c/	.
8B-/J	.
8G-/L	2F:dom
8Gn/	.
8B-/	.
8G/J	.
=77	=77
8A/L	1B-:min
8g-/	.
8e-/	.
8en/J	.
8f/L	.
8d-/	.
8B-/	.
8F/J	.
=78	=78
8e-/L	1F:dom:9-
8d-/	.
8c/	.
8B-/J	.
8A/L	.
8g-/	.
8e-/	.
8en/J	.
=79	=79
4f/	1B-:min
8c/L	.
8e-/J	.
8d-/L	.
[8B-/J	.
4B-/]}	.
=80	=80
1r	1B-:min
=81	=81
8r	1F:min
*>solo3b	*>solo3b
{8e/	.
16f/LL	.
16a-/	.
16cc/	.
16ee-/JJ	.
8gg\	.
4cc\	.
[8ff#\	.
=82||	=82||
8ff#\]	1B-:dom
24dd\LL	.
24b\	.
24b-\JJ	.
2a-/	.
8r	.
8f/	.
=83	=83
8g-\L	1E-:min
8b-\	.
8ee-\	.
[8gg-\J	.
4gg-\]	.
8ee-\L	.
8een\J	.
=84	=84
8ff\L	1E-:min
[8ee-\J	.
4ee-\]}	.
2r	.
=85	=85
2r	1E-:min
4r	.
{12gg-\L	.
12ff\	.
12ee\J	.
=86	=86
8ee-\L	1A-:dom
8b-\	.
8dd-\	.
8b-\J	.
8cc\	.
24ff\LL	.
24ee-\	.
24dd-\JJ	.
8cc\L	.
8b-\J	.
=87	=87
8a/L	1D-:maj
[8a-/J	.
4a-/]	.
8r	.
8e/	.
12f/L	.
12a-/	.
12cc/J	.
=88	=88
8ee-\L	1F:dom
8dd\	.
8dd-\	.
16ee-\L	.
16dd-\JJ	.
8cc/L	.
8b-/	.
8a/	.
8f#/J	.
=89	=89
8e-/L	1B-:min
8en/J	.
4f/}	.
2r	.
=90||	=90||
4r	2C:min
*>solo2aa	*>solo2aa
{8c/L	.
8d-/J	.
8e-/L	2F:dom
8d-/	.
8c/	.
8B-/J	.
=91	=91
4f/	1B-:min
2f/}	.
4r	.
=92	=92
4r	2C:min
8r	.
{8f/	.
8g-/L	2F:dom
8f/	.
8d-/	.
8c/J	.
=93	=93
8B/L	1B-:min
8e-/	.
8A/	.
8B-/J	.
4.c/	.
8B-/	.
=94	=94
12A/L	1F:dom:9-
12c/	.
12e-/J	.
8g-/L	.
8e-/J	.
8en/L	.
8f/	.
8d-/	.
8dn/J	.
=95	=95
4.e-/}	1B-:min
8r	.
8r	.
{8d-/L	.
8c/	.
8B-/J	.
=96	=96
8A/L	1F:dom:9-
8g-/	.
8e-/	.
8en/J	.
4f/	.
8cc/L	.
8a/J	.
=97	=97
8b-/L	1B-:min
[8f/J	.
4f/]}	.
2r	.
==	==
*-	*-
